icons/2_Variations/TheHive fg.var.svg

<svg xmlns="http://www.w3.org/2000/svg" width="1024" height="1024" fill="none">
   <g clip-path="url(#a)">
      <path fill="#F9DE81" d="M512 1024c282.77 0 512-229.23 512-512S794.77 0 512 0 0 229.23 0 512s229.23 512 512 512Z"/>
      <path fill="#56595B" d="M400.82 246.67a11.902 11.902 0 0 0-10.36 5.95L280.29 444a11.912 11.912 0 0 0 0 12l52.22 89.89a11.904 11.904 0 0 0 16.28 4.28 11.901 11.901 0 0 0 4.28-16.28L304.36 450l103.32-179.54H617.2l103.49 179.67-46.11 84a11.878 11.878 0 0 0-1.168 9.154 11.894 11.894 0 0 0 10.226 8.636 11.885 11.885 0 0 0 11.782-6.35l49.33-89.89a11.92 11.92 0 0 0-.11-11.67L634.43 252.63a11.908 11.908 0 0 0-10.31-5.95l-223.3-.01Zm52 72.79a14.504 14.504 0 0 0-11.998 6.579 14.491 14.491 0 0 0-1.182 13.631l17.4 40.6a14.5 14.5 0 0 0 19.045 7.615 14.51 14.51 0 0 0 7.752-7.945 14.508 14.508 0 0 0-.137-11.1l-17.4-40.6a14.505 14.505 0 0 0-13.48-8.79v.01Zm119 0a14.503 14.503 0 0 0-13.31 8.79l-17.4 40.6a14.497 14.497 0 0 0 7.62 19 14.502 14.502 0 0 0 19-7.62l17.4-40.6a14.498 14.498 0 0 0-7.62-19 14.51 14.51 0 0 0-5.73-1.17h.04Zm-58 69.6c-31.9 0-58 29-55.1 52.2 0 29 46.4 29 55.1 29 8.7 0 55.1 0 55.1-29 .08-23.2-26.01-52.2-55.01-52.2h-.09ZM540 508l31.9 81.2c2.9 0 2.9 2.9 2.9 5.8l23.2 58 14.5 37.7c8.7 20.3 29 34.8 52.2 34.8 5.8 0 14.5-2.9 20.3-5.8 29-11.6 43.5-43.5 31.9-72.5C685 571.77 592.22 516.67 540 508Zm-55.11 0c-49.31 5.8-145 60.9-174 136.3-14.5 29 0 60.9 29 72.5 5.8 5.8 11.6 5.8 20.3 5.8 20.3 0 40.6-14.5 49.3-34.8l14.5-37.7 60.9-142.1Zm26.1 26.1-17.4 43.5h34.8l-17.4-43.5Zm-31.9 81.2-8.7 26.1h81.2l-8.7-26.1h-63.8ZM453 676.17l-11.6 26.1h136.3l-8.7-26.1H453Zm-20.3 60.9c11.6 43.5 40.6 69.6 78.3 69.6 37.7 0 66.7-26.1 81.2-69.6H432.7Z"/>
   </g>
   <defs>
      <clipPath id="a">
         <path fill="#fff" d="M0 0h1024v1024H0z"/>
      </clipPath>
   </defs>
</svg>

<svg width="1024" height="1024" viewBox="0 0 1024 1024" fill="none" xmlns="http://www.w3.org/2000/svg">
<g clip-path="url(#clip0_3_284)">
<path d="M512 1024C794.77 1024 1024 794.77 1024 512C1024 229.23 794.77 0 512 0C229.23 0 0 229.23 0 512C0 794.77 229.23 1024 512 1024Z" fill="#F9DE81"/>
<path d="M400.82 246.67C398.722 246.661 396.659 247.207 394.84 248.252C393.021 249.297 391.51 250.804 390.46 252.62L280.29 444C279.228 445.821 278.668 447.892 278.668 450C278.668 452.108 279.228 454.179 280.29 456L332.51 545.89C334.101 548.616 336.71 550.599 339.763 551.402C342.816 552.204 346.063 551.761 348.79 550.17C351.516 548.579 353.499 545.97 354.301 542.916C355.104 539.863 354.661 536.616 353.07 533.89L304.36 450L407.68 270.46H617.2L720.69 450.13L674.58 534.13C673.785 535.501 673.272 537.017 673.072 538.589C672.871 540.161 672.987 541.758 673.412 543.284C673.837 544.811 674.563 546.237 675.548 547.479C676.532 548.721 677.755 549.754 679.144 550.517C680.534 551.279 682.061 551.756 683.638 551.92C685.214 552.084 686.807 551.931 688.324 551.47C689.84 551.009 691.249 550.25 692.467 549.237C693.686 548.223 694.69 546.977 695.42 545.57L744.75 455.68C745.734 453.889 746.241 451.874 746.222 449.831C746.203 447.787 745.658 445.782 744.64 444.01L634.43 252.63C633.384 250.821 631.881 249.319 630.071 248.275C628.262 247.23 626.209 246.68 624.12 246.68L400.82 246.67ZM452.82 319.46C450.433 319.484 448.089 320.098 445.996 321.245C443.903 322.393 442.126 324.039 440.822 326.039C439.518 328.038 438.728 330.328 438.522 332.706C438.316 335.084 438.7 337.476 439.64 339.67L457.04 380.27C458.555 383.805 461.413 386.594 464.985 388.022C468.557 389.45 472.549 389.401 476.085 387.885C479.62 386.369 482.408 383.511 483.837 379.94C485.265 376.368 485.215 372.375 483.7 368.84L466.3 328.24C465.172 325.607 463.29 323.368 460.891 321.803C458.492 320.239 455.684 319.42 452.82 319.45V319.46ZM571.82 319.46C568.985 319.464 566.213 320.298 563.848 321.86C561.482 323.423 559.626 325.644 558.51 328.25L541.11 368.85C539.607 372.381 539.566 376.363 540.994 379.924C542.422 383.486 545.204 386.336 548.73 387.85C552.26 389.352 556.243 389.394 559.804 387.966C563.365 386.537 566.215 383.756 567.73 380.23L585.13 339.63C586.632 336.099 586.674 332.117 585.245 328.556C583.817 324.994 581.035 322.144 577.51 320.63C575.699 319.855 573.749 319.457 571.78 319.46H571.82ZM513.82 389.06C481.92 389.06 455.82 418.06 458.72 441.26C458.72 470.26 505.12 470.26 513.82 470.26C522.52 470.26 568.92 470.26 568.92 441.26C569 418.06 542.91 389.06 513.91 389.06H513.82ZM540 508L571.9 589.2C574.8 589.2 574.8 592.1 574.8 595L598 653L612.5 690.7C621.2 711 641.5 725.5 664.7 725.5C670.5 725.5 679.2 722.6 685 719.7C714 708.1 728.5 676.2 716.9 647.2C685 571.77 592.22 516.67 540 508ZM484.89 508C435.58 513.8 339.89 568.9 310.89 644.3C296.39 673.3 310.89 705.2 339.89 716.8C345.69 722.6 351.49 722.6 360.19 722.6C380.49 722.6 400.79 708.1 409.49 687.8L423.99 650.1L484.89 508ZM510.99 534.1L493.59 577.6H528.39L510.99 534.1ZM479.09 615.3L470.39 641.4H551.59L542.89 615.3H479.09ZM453 676.17L441.4 702.27H577.7L569 676.17H453ZM432.7 737.07C444.3 780.57 473.3 806.67 511 806.67C548.7 806.67 577.7 780.57 592.2 737.07H432.7Z" fill="#56595B"/>
</g>
<defs>
<clipPath id="clip0_3_284">
<rect width="1024" height="1024" fill="white"/>
</clipPath>
</defs>
</svg>
